images/DDX.svg

<svg height="250" viewBox="0 0 250 250" width="250" xmlns="http://www.w3.org/2000/svg"><path d="m0 0h250v250h-250z" fill="#fff"/><path d="m27.335938 119.089844v-31.601563h30.402343c1.625 0 3.21875.222657 4.808594.550781.707031.144532 1.445313.152344 2.136719.335938 9.746094 2.550781 16.917968 8.292969 21.273437 17.402344 1.183594 2.476562 2.085938 5.082031 2.425781 7.847656.226563 1.796875.617188 3.570312.550782 5.382812-.710938.21875-59.976563.296876-61.597656.082032zm129.394531.03125h-61.523438v-31.558594c.253907-.023438.507813-.070312.765625-.070312 9.988282-.003907 19.980469-.046876 29.96875.019531 3.25.023437 6.425782.636719 9.519532 1.730469 8.636718 3.050781 14.828124 8.75 18.617187 17.035156 1.042969 2.28125 1.871094 4.679687 2.226563 7.1875.246093 1.761718.347656 3.535156.511718 5.304687.007813.09375-.046875.191407-.085937.351563zm-129.140625 6.742187c.367187-.011719.730468-.039062 1.097656-.039062h60.246094c0 .515625.042968.976562-.007813 1.425781-.277343 2.589844-.511719 5.191406-1.316406 7.691406-3.019531 9.414063-9.035156 16.132813-18.09375 20.101563-2.09375.914062-4.285156 1.574219-6.539063 1.9375-1.628906.261719-3.289062.453125-4.933593.457031-9.925781.042969-19.851563.019531-29.777344.019531h-.980469v-1.070312c0-9.890625 0-19.78125.003906-29.675781 0-.226563.042969-.457032.070313-.6875.074219-.050782.152344-.105469.230469-.160157zm129.179687.179688c.046875 1.5625-.019531 3.109375-.375 4.644531-.257812 1.128906-.34375 2.304688-.667969 3.414062-3.09375 10.46875-9.6875 17.714844-19.964843 21.542969-2.714844 1.015625-5.527344 1.566407-8.410157 1.785157-.136718.003906-.269531.011718-.402343.015624-10.394531.003907-20.796875.011719-31.191407.015626-.132812 0-.261718-.023438-.394531-.039063l-.167969-.191406c-.011718-.269531-.03125-.535157-.03125-.796875v-30.523438c.273438-.035156.496094-.082031.714844-.082031 20.054688-.003906 40.109375-.003906 60.164063 0 .164062 0 .328125.027344.496093.039063.078126.054687.152344.113281.230469.175781zm0 0" fill="#2d1680"/><path d="m154.308594 87.515625h22.238281c15.710937 23.214844 31.457031 46.480469 47.222656 69.769531-.875.234375-19.941406.328125-23.394531.128906-15.296875-23.207031-30.625-46.464843-46.066406-69.898437zm0 0" fill="#2e1780"/><path d="m153.015625 157.378906c6.722656-9.65625 13.324219-19.140625 19.933594-28.636718.699219.5625 18.648437 27.503906 19.101562 28.636718zm70.710937-69.5c-1.316406 1.921875-2.621093 3.847656-3.953124 5.757813-2.292969 3.304687-4.605469 6.597656-6.910157 9.902343-2.738281 3.925782-5.476562 7.859376-8.214843 11.785157-.128907.1875-.296876.347656-.53125.613281-.21875-.246094-.429688-.4375-.589844-.667969-1.878906-2.742187-3.75-5.496093-5.625-8.242187-4.277344-6.261719-8.554688-12.519532-12.835938-18.78125-.074218-.109375-.113281-.238282-.167968-.359375l.039062-.390625c.300781-.007813.601562-.019532.898438-.019532h36.960937c.300781 0 .597656.015626.898437.023438.007813.125.019532.253906.03125.378906zm0 0" fill="#ef88aa"/><path d="m125.898438 160.300781c.136718-.003906.269531-.011719.402343-.015625-.132812.007813-.265625.011719-.402343.015625zm0 0" fill="#a298c4"/><path d="m184.9375 87.496094-.039062.390625c-.144532-.144531-.273438-.289063.039062-.390625zm38.789062.382812c-.015624-.128906-.023437-.253906-.035156-.382812.3125.105468.1875.242187.035156.382812zm0 0" fill="#f1a3bd"/><path d="m27.589844 125.863281c-.078125.054688-.152344.113281-.230469.164063.074219-.054688.152344-.109375.230469-.164063zm129.179687.179688c-.078125-.058594-.152343-.117188-.230469-.179688.078126.058594.152344.117188.230469.179688zm0 0" fill="#392487"/><path d="m94.144531 160.082031.167969.191407zm0 0" fill="#46328f"/></svg>

<!-- Generator: Adobe Illustrator 25.0.0, SVG Export Plug-In . SVG Version: 6.00 Build 0)  -->
<svg xmlns="http://www.w3.org/2000/svg" xmlns:xlink="http://www.w3.org/1999/xlink" width="250px" height="250px" viewBox="0 0 250 250" version="1.1">
<g id="surface1">
<rect x="0" y="0" width="250" height="250" style="fill:rgb(100%,100%,100%);fill-opacity:1;stroke:none;"/>
<path style=" stroke:none;fill-rule:nonzero;fill:rgb(17.647059%,8.627451%,50.196081%);fill-opacity:1;" d="M 27.335938 119.089844 L 27.335938 87.488281 L 57.738281 87.488281 C 59.363281 87.488281 60.957031 87.710938 62.546875 88.039062 C 63.253906 88.183594 63.992188 88.191406 64.683594 88.375 C 74.429688 90.925781 81.601562 96.667969 85.957031 105.777344 C 87.140625 108.253906 88.042969 110.859375 88.382812 113.625 C 88.609375 115.421875 89 117.195312 88.933594 119.007812 C 88.222656 119.226562 28.957031 119.304688 27.335938 119.089844 Z M 156.730469 119.121094 L 95.207031 119.121094 L 95.207031 87.5625 C 95.460938 87.539062 95.714844 87.492188 95.972656 87.492188 C 105.960938 87.488281 115.953125 87.445312 125.941406 87.511719 C 129.191406 87.535156 132.367188 88.148438 135.460938 89.242188 C 144.097656 92.292969 150.289062 97.992188 154.078125 106.277344 C 155.121094 108.558594 155.949219 110.957031 156.304688 113.464844 C 156.550781 115.226562 156.652344 117 156.816406 118.769531 C 156.824219 118.863281 156.769531 118.960938 156.730469 119.121094 Z M 27.589844 125.863281 C 27.957031 125.851562 28.320312 125.824219 28.6875 125.824219 L 88.933594 125.824219 C 88.933594 126.339844 88.976562 126.800781 88.925781 127.25 C 88.648438 129.839844 88.414062 132.441406 87.609375 134.941406 C 84.589844 144.355469 78.574219 151.074219 69.515625 155.042969 C 67.421875 155.957031 65.230469 156.617188 62.976562 156.980469 C 61.347656 157.242188 59.6875 157.433594 58.042969 157.4375 C 48.117188 157.480469 38.191406 157.457031 28.265625 157.457031 L 27.285156 157.457031 L 27.285156 156.386719 C 27.285156 146.496094 27.285156 136.605469 27.289062 126.710938 C 27.289062 126.484375 27.332031 126.253906 27.359375 126.023438 C 27.433594 125.972656 27.511719 125.917969 27.589844 125.863281 Z M 156.769531 126.042969 C 156.816406 127.605469 156.75 129.152344 156.394531 130.6875 C 156.136719 131.816406 156.050781 132.992188 155.726562 134.101562 C 152.632812 144.570312 146.039062 151.816406 135.761719 155.644531 C 133.046875 156.660156 130.234375 157.210938 127.351562 157.429688 C 127.214844 157.433594 127.082031 157.441406 126.949219 157.445312 C 116.554688 157.449219 106.152344 157.457031 95.757812 157.460938 C 95.625 157.460938 95.496094 157.4375 95.363281 157.421875 L 95.195312 157.230469 C 95.183594 156.960938 95.164062 156.695312 95.164062 156.433594 L 95.164062 125.910156 C 95.4375 125.875 95.660156 125.828125 95.878906 125.828125 C 115.933594 125.824219 135.988281 125.824219 156.042969 125.828125 C 156.207031 125.828125 156.371094 125.855469 156.539062 125.867188 C 156.617188 125.921875 156.691406 125.980469 156.769531 126.042969 Z M 156.769531 126.042969 "/>
<path style=" stroke:none;fill-rule:nonzero;fill:rgb(18.039216%,9.019608%,50.196081%);fill-opacity:1;" d="M 154.308594 87.515625 L 176.546875 87.515625 C 192.257812 110.730469 208.003906 133.996094 223.769531 157.285156 C 222.894531 157.519531 203.828125 157.613281 200.375 157.414062 C 185.078125 134.207031 169.75 110.949219 154.308594 87.515625 Z M 154.308594 87.515625 "/>
<path style=" stroke:none;fill-rule:nonzero;fill:rgb(93.725491%,53.333336%,66.666669%);fill-opacity:1;" d="M 153.015625 157.378906 C 159.738281 147.722656 166.339844 138.238281 172.949219 128.742188 C 173.648438 129.304688 191.597656 156.246094 192.050781 157.378906 Z M 223.726562 87.878906 C 222.410156 89.800781 221.105469 91.726562 219.773438 93.636719 C 217.480469 96.941406 215.167969 100.234375 212.863281 103.539062 C 210.125 107.464844 207.386719 111.398438 204.648438 115.324219 C 204.519531 115.511719 204.351562 115.671875 204.117188 115.9375 C 203.898438 115.691406 203.6875 115.5 203.527344 115.269531 C 201.648438 112.527344 199.777344 109.773438 197.902344 107.027344 C 193.625 100.765625 189.347656 94.507812 185.066406 88.246094 C 184.992188 88.136719 184.953125 88.007812 184.898438 87.886719 L 184.9375 87.496094 C 185.238281 87.488281 185.539062 87.476562 185.835938 87.476562 L 222.796875 87.476562 C 223.097656 87.476562 223.394531 87.492188 223.695312 87.5 C 223.703125 87.625 223.714844 87.753906 223.726562 87.878906 Z M 223.726562 87.878906 "/>
<path style=" stroke:none;fill-rule:nonzero;fill:rgb(63.529414%,59.607846%,76.862746%);fill-opacity:1;" d="M 125.898438 160.300781 C 126.035156 160.296875 126.167969 160.289062 126.300781 160.285156 C 126.167969 160.292969 126.035156 160.296875 125.898438 160.300781 Z M 125.898438 160.300781 "/>
<path style=" stroke:none;fill-rule:nonzero;fill:rgb(94.509804%,63.921571%,74.117649%);fill-opacity:1;" d="M 184.9375 87.496094 L 184.898438 87.886719 C 184.753906 87.742188 184.625 87.597656 184.9375 87.496094 Z M 223.726562 87.878906 C 223.710938 87.75 223.703125 87.625 223.691406 87.496094 C 224.003906 87.601562 223.878906 87.738281 223.726562 87.878906 Z M 223.726562 87.878906 "/>
<path style=" stroke:none;fill-rule:nonzero;fill:rgb(22.352941%,14.117648%,52.941179%);fill-opacity:1;" d="M 27.589844 125.863281 C 27.511719 125.917969 27.4375 125.976562 27.359375 126.027344 C 27.433594 125.972656 27.511719 125.917969 27.589844 125.863281 Z M 156.769531 126.042969 C 156.691406 125.984375 156.617188 125.925781 156.539062 125.863281 C 156.617188 125.921875 156.691406 125.980469 156.769531 126.042969 Z M 156.769531 126.042969 "/>
<path style=" stroke:none;fill-rule:nonzero;fill:rgb(27.450982%,19.607843%,56.078434%);fill-opacity:1;" d="M 94.144531 160.082031 L 94.3125 160.273438 Z M 94.144531 160.082031 "/>
</g>
</svg>
